src/components/Icon/utils/svgsOptimized/eye-off.svg

<svg width="24" height="24" viewBox="0 0 24 24"  xmlns="http://www.w3.org/2000/svg">
<path d="M15.5625 4.75433L15.565 4.75H15.555L15.5625 4.75433Z" />
<path fill-rule="evenodd" clip-rule="evenodd" d="M15.5625 4.75433L14.075 7.36C13.425 7.13 12.745 7 12.005 7C9.13498 7 7.01498 8.73 5.31498 11.47C5.11498 11.79 5.11498 12.2 5.31498 12.52C6.36498 14.2 7.57498 15.48 9.00498 16.23L7.56498 18.75L8.43498 19.25L16.425 5.25L15.5625 4.75433ZM11.995 8.5C10.065 8.5 8.49498 10.07 8.49498 12H8.48498C8.48498 13.12 9.02498 14.1 9.84498 14.74L10.865 12.96C10.645 12.7 10.495 12.37 10.495 12C10.495 11.17 11.165 10.5 11.995 10.5C12.0767 10.5 12.1502 10.5165 12.2305 10.5345C12.2386 10.5363 12.2467 10.5382 12.255 10.54L13.275 8.76C12.875 8.6 12.445 8.5 11.995 8.5Z" />
<path d="M15.265 10.77L16.425 8.74C17.255 9.47 18.005 10.38 18.685 11.47C18.885 11.79 18.885 12.2 18.685 12.52C16.975 15.26 14.855 16.99 11.995 16.99C11.95 16.99 11.905 16.985 11.86 16.98C11.815 16.975 11.77 16.97 11.725 16.97L12.605 15.43C14.245 15.14 15.495 13.72 15.495 11.99C15.495 11.56 15.405 11.15 15.265 10.77Z" />
</svg>

<?xml version="1.0" encoding="utf-8"?><svg width="24" height="24" xmlns="http://www.w3.org/2000/svg" viewBox="0 0 24 24"><path d="m15.563 4.754.002-.004h-.01l.008.004Z"/><path fill-rule="evenodd" clip-rule="evenodd" d="M15.563 4.754 14.075 7.36c-.65-.23-1.33-.36-2.07-.36-2.87 0-4.99 1.73-6.69 4.47-.2.32-.2.73 0 1.05 1.05 1.68 2.26 2.96 3.69 3.71l-1.44 2.52.87.5 7.99-14-.863-.496ZM11.995 8.5c-1.93 0-3.5 1.57-3.5 3.5h-.01c0 1.12.54 2.1 1.36 2.74l1.02-1.78c-.22-.26-.37-.59-.37-.96 0-.83.67-1.5 1.5-1.5.082 0 .155.017.236.034l.024.006 1.02-1.78c-.4-.16-.83-.26-1.28-.26Z"/><path d="m15.265 10.77 1.16-2.03c.83.73 1.58 1.64 2.26 2.73.2.32.2.73 0 1.05-1.71 2.74-3.83 4.47-6.69 4.47-.045 0-.09-.005-.135-.01-.045-.005-.09-.01-.135-.01l.88-1.54a3.493 3.493 0 0 0 2.89-3.44c0-.43-.09-.84-.23-1.22Z"/></svg>
